X:1
T:Title
%%score { ( 1 3 ) | 2 }
L:1/8
M:3/4
K:G
V:1 treble nm="Grand Piano"
V:3 treble 
V:2 bass 
V:1
 z2 z2[Q:1/4=100] DD | G2 G2 FG | [FA]2 [FA]2 BB | c2 [Fc]2 [Ac]c |[M:2/4] B4 |[M:1/4] DD | %6
[M:3/4] G2 G2 FG | [FA]2 [FA]2 [DGB][DGB] | [CEA]2 [CEA]2 [B,DG][A,DF] |[M:2/4] [B,DG]4 | %10
[M:4/4] z2 B6 | z2 A2 A4 | z2 A6 | z2 G6 | z2 B6 | z2 E6 | z2 d6 |[M:3/4] z2 G4- | G2 z2 z2 |] %19
V:2
 z2 z2 [G,B,][G,B,] | [G,B,D]2 [G,B,D]2 [A,CD][G,B,] | [D,D]2 [D,D]2[K:treble] [G,DG][G,DG] | %3
 [A,DF]2[K:bass] [D,A,]2 [F,D][K:treble][A,DF] |[M:2/4] [G,DG]4 |[M:1/4] [G,B,][G,B,] | %6
[M:3/4] [G,B,D]2[K:bass] [G,B,D]2 [A,CD][G,B,] | [D,D]2 [D,D]2 G,G, | C,2 C,2 D,D, |[M:2/4] G,,4 | %10
[M:4/4] z4[K:treble] [G,D][G,D][G,D][G,DG] | [F,D][E,^CE][D,D][D,D] [D,D][D,D] [D,D]2 | %12
 z4 [D,D][D,D][D,D][D,A,D] | [F,A,D][A,D] [G,B,D]2 [D,B,][B,,B,] G,,2 | %14
 z4 [B,,F,][B,,G,] [B,,A,]2 | z4 [C,G,][C,G,] [C,G,]2 | z4 [D,B,][D,B,][D,B,][D,A,] | %17
[M:3/4] [D,D][D,CD] [G,B,D]2 [D,B,][B,,B,] | G,,2 z2 z2 |] %19
V:3
 x6 | x6 | x6 | x6 |[M:2/4] x4 |[M:1/4] x2 |[M:3/4] x6 | x6 | x6 |[M:2/4] x4 |[M:4/4] DG z2 GGGB | %11
 AGFF FF F2 | DF z2 FFFF | AF z2 DD [B,D]2 | BB z2 ^DD D2 | GF z2 CC C2 | GB z2 GGG[Fc] | %17
[M:3/4] [GB]A z2 DD | [B,D]2 z2 z2 |] %19

